; generated by PrusaSlicer 2.3.3+win64 on 2021-12-05 at 15:21:23 UTC

; 

; external perimeters extrusion width = 0.45mm
; perimeters extrusion width = 0.45mm
; infill extrusion width = 0.45mm
; solid infill extrusion width = 0.45mm
; top infill extrusion width = 0.40mm
; first layer extrusion width = 0.42mm

M73 P0 R48
M201 X9000 Y9000 Z500 E10000 ; sets maximum accelerations, mm/sec^2
M203 X500 Y500 Z12 E120 ; sets maximum feedrates, mm/sec
M204 P2000 R1500 T2000 ; sets acceleration (P, T) and retract acceleration (R), mm/sec^2
M205 X10.00 Y10.00 Z0.20 E2.50 ; sets the jerk limits, mm/sec
M205 S0 T0 ; sets the minimum extruding and travel feed rate, mm/sec
M107
;TYPE:Custom
M862.3 P "MK2S" ; printer model check
M862.1 P0.4 ; nozzle diameter check
M115 U3.2.3 ; tell printer latest fw version
G90 ; use absolute coordinates
M83 ; extruder relative mode
M204 S2000 T1500 ; MK2 firmware only supports the old M204 format
M104 S215 ; set extruder temp
M140 S60 ; set bed temp
M190 S60 ; wait for bed temp
M109 S215 ; wait for extruder temp
G28 W ; home all without mesh bed level
G80 ; mesh bed leveling
G1 Y-3.0 F1000.0 ; go outside print area
G92 E0.0
G1 X60.0 E9.0  F1000.0 ; intro line
G1 X100.0 E12.5 F1000.0 ; intro line
G92 E0.0
G21 ; set units to millimeters
G90 ; use absolute coordinates
M83 ; use relative distances for extrusion
M900 K0.05 ; Filament gcode LA 1.5
M900 K30 ; Filament gcode LA 1.0
;LAYER_CHANGE
;Z:0.2
;HEIGHT:0.2
;BEFORE_LAYER_CHANGE
G92 E0.0
;0.2


G1 E-0.80000 F2100.000
G1 Z0.400 F10800.000
;AFTER_LAYER_CHANGE
;0.2
G1 X22.774 Y92.831
G1 Z0.200
G1 E0.80000 F2100.000
M204 S1000
;TYPE:Skirt
;WIDTH:0.42
G1 F1200.000
G1 X24.849 Y92.628 E0.06537
G1 X225.004 Y92.623 E6.27570
G1 X227.057 Y92.795 E0.06462
G1 X229.187 Y93.359 E0.06907
G1 X230.889 Y94.114 E0.05837
G1 X232.442 Y95.119 E0.05801
G1 X233.981 Y96.491 E0.06466
G1 X235.350 Y98.213 E0.06895
G1 X236.335 Y100.030 E0.06481
G1 X237.003 Y101.982 E0.06469
G1 X237.343 Y104.158 E0.06907
G1 X237.310 Y106.217 E0.06456
G1 X236.998 Y108.040 E0.05799
G1 X236.401 Y109.803 E0.05837
G1 X235.373 Y111.752 E0.06907
G1 X234.105 Y113.384 E0.06481
G1 X232.586 Y114.780 E0.06469
G1 X230.725 Y115.967 E0.06919
G1 X229.021 Y116.706 E0.05825
G1 X227.226 Y117.169 E0.05813
G1 X225.151 Y117.372 E0.06537
G1 X24.874 Y117.374 E6.27952
M73 P1 R48
G1 X22.931 Y117.203 E0.06116
G1 X20.802 Y116.637 E0.06907
G1 X19.108 Y115.885 E0.05813
G1 X17.558 Y114.881 E0.05789
G1 X16.022 Y113.511 E0.06454
G1 X14.650 Y111.787 E0.06907
G1 X13.671 Y109.984 E0.06433
G1 X13.001 Y108.037 E0.06457
G1 X12.662 Y105.975 E0.06552
G1 X12.688 Y103.795 E0.06836
G1 X13.002 Y101.960 E0.05837
G1 X13.595 Y100.208 E0.05801
G1 X14.627 Y98.248 E0.06943
G1 X15.887 Y96.625 E0.06445
G1 X17.414 Y95.220 E0.06505
G1 X19.271 Y94.035 E0.06907
G1 X20.979 Y93.294 E0.05837
G1 X22.716 Y92.846 E0.05625
; printing object Body1 id:0 copy 0
;WIPE_START
G1 F8640.000
G1 X24.849 Y92.628 E-0.49513
G1 X25.996 Y92.628 E-0.26487
;WIPE_END
G1 E-0.04000 F2100.000
G1 Z0.600 F10800.000
G1 X222.706 Y105.000
G1 Z0.200
G1 E0.80000 F2100.000
;TYPE:Perimeter
G1 F1200.000
G1 X222.784 Y104.406 E0.01878
G1 X223.013 Y103.853 E0.01878
G1 X223.378 Y103.378 E0.01878
G1 X223.853 Y103.013 E0.01878
G1 X224.406 Y102.784 E0.01878
G1 X224.947 Y102.713 E0.01711
G1 X225.587 Y102.782 E0.02017
G1 X226.147 Y103.013 E0.01900
G1 X226.622 Y103.378 E0.01878
G1 X226.987 Y103.853 E0.01878
G1 X227.216 Y104.406 E0.01878
G1 X227.294 Y105.000 E0.01878
G1 X227.216 Y105.594 E0.01878
G1 X226.987 Y106.147 E0.01878
G1 X226.622 Y106.622 E0.01878
G1 X226.147 Y106.987 E0.01878
G1 X225.643 Y107.195 E0.01711
G1 X225.007 Y107.295 E0.02017
G1 X224.406 Y107.216 E0.01900
G1 X223.853 Y106.987 E0.01878
G1 X223.378 Y106.622 E0.01878
G1 X223.013 Y106.147 E0.01878
G1 X222.784 Y105.594 E0.01878
G1 X222.714 Y105.059 E0.01689
G1 X223.088 Y105.010 F10800.000
;TYPE:External perimeter
G1 F1200.000
G1 X223.152 Y104.505 E0.01598
G1 X223.343 Y104.043 E0.01566
G1 X223.647 Y103.647 E0.01566
G1 X224.043 Y103.343 E0.01566
G1 X224.505 Y103.152 E0.01566
G1 X224.952 Y103.093 E0.01414
G1 X225.493 Y103.151 E0.01706
G1 X225.957 Y103.343 E0.01574
G1 X226.353 Y103.647 E0.01566
G1 X226.657 Y104.043 E0.01566
G1 X226.848 Y104.505 E0.01566
G1 X226.914 Y105.000 E0.01566
G1 X226.848 Y105.495 E0.01566
G1 X226.657 Y105.957 E0.01566
G1 X226.353 Y106.353 E0.01566
G1 X225.957 Y106.657 E0.01566
G1 X225.540 Y106.830 E0.01414
G1 X225.003 Y106.914 E0.01706
G1 X224.505 Y106.848 E0.01574
G1 X224.043 Y106.657 E0.01566
G1 X223.647 Y106.353 E0.01566
G1 X223.343 Y105.957 E0.01566
G1 X223.152 Y105.495 E0.01566
G1 X223.096 Y105.070 E0.01346
G1 X222.741 Y104.812 F10800.000
;WIPE_START
G1 F8640.000
G1 X223.152 Y104.505 E-0.13110
G1 X223.343 Y104.043 E-0.11534
G1 X223.647 Y103.647 E-0.11535
G1 X224.043 Y103.343 E-0.11534
G1 X224.505 Y103.152 E-0.11534
G1 X224.952 Y103.093 E-0.10414
G1 X225.225 Y103.122 E-0.06338
;WIPE_END
G1 E-0.04000 F2100.000
G1 Z0.600 F10800.000
G1 X27.394 Y105.000
G1 Z0.200
G1 E0.80000 F2100.000
;TYPE:Perimeter
G1 F1200.000
G1 X27.312 Y105.620 E0.01959
G1 X27.073 Y106.197 E0.01959
G1 X26.693 Y106.693 E0.01959
G1 X26.197 Y107.073 E0.01959
G1 X25.620 Y107.312 E0.01959
G1 X25.000 Y107.394 E0.01959
G1 X24.380 Y107.312 E0.01959
G1 X23.803 Y107.073 E0.01959
G1 X23.307 Y106.693 E0.01959
G1 X22.927 Y106.197 E0.01959
G1 X22.688 Y105.620 E0.01959
G1 X22.606 Y105.000 E0.01959
G1 X22.688 Y104.380 E0.01959
G1 X22.927 Y103.803 E0.01959
G1 X23.307 Y103.307 E0.01959
G1 X23.803 Y102.927 E0.01959
G1 X24.380 Y102.688 E0.01959
G1 X25.000 Y102.606 E0.01959
G1 X25.620 Y102.688 E0.01959
G1 X26.197 Y102.927 E0.01959
G1 X26.693 Y103.307 E0.01959
G1 X27.073 Y103.803 E0.01959
G1 X27.312 Y104.380 E0.01959
G1 X27.386 Y104.941 E0.01771
G1 X27.012 Y104.990 F10800.000
;TYPE:External perimeter
G1 F1200.000
G1 X26.945 Y105.521 E0.01679
G1 X26.744 Y106.007 E0.01648
G1 X26.424 Y106.424 E0.01648
G1 X26.007 Y106.744 E0.01648
G1 X25.521 Y106.945 E0.01648
G1 X25.000 Y107.014 E0.01648
G1 X24.479 Y106.945 E0.01648
G1 X23.993 Y106.744 E0.01648
G1 X23.576 Y106.424 E0.01648
G1 X23.256 Y106.007 E0.01648
G1 X23.055 Y105.521 E0.01648
G1 X22.986 Y105.000 E0.01648
G1 X23.055 Y104.479 E0.01648
G1 X23.256 Y103.993 E0.01648
G1 X23.576 Y103.576 E0.01648
G1 X23.993 Y103.256 E0.01648
G1 X24.479 Y103.055 E0.01648
G1 X25.000 Y102.986 E0.01648
G1 X25.521 Y103.055 E0.01648
G1 X26.007 Y103.256 E0.01648
G1 X26.424 Y103.576 E0.01648
G1 X26.744 Y103.993 E0.01648
G1 X26.945 Y104.479 E0.01648
G1 X27.004 Y104.930 E0.01428
G1 X27.359 Y105.188 F10800.000
;WIPE_START
G1 F8640.000
G1 X26.945 Y105.521 E-0.13713
G1 X26.744 Y106.007 E-0.12137
G1 X26.424 Y106.424 E-0.12137
G1 X26.007 Y106.744 E-0.12137
G1 X25.521 Y106.945 E-0.12137
G1 X25.000 Y107.014 E-0.12137
G1 X24.931 Y107.004 E-0.01602
;WIPE_END
G1 E-0.04000 F2100.000
G1 Z0.600 F10800.000
G1 X23.484 Y95.915
G1 Z0.200
G1 E0.80000 F2100.000
;TYPE:Perimeter
G1 F1200.000
G1 X25.033 Y95.787 E0.04872
G1 X225.041 Y95.793 E6.27114
M73 P1 R47
G1 X226.516 Y95.915 E0.04639
G1 X227.991 Y96.289 E0.04769
G1 X229.384 Y96.900 E0.04769
G1 X230.657 Y97.732 E0.04769
G1 X231.776 Y98.762 E0.04769
G1 X232.710 Y99.962 E0.04769
G1 X233.434 Y101.300 E0.04769
G1 X233.928 Y102.739 E0.04769
G1 X234.179 Y104.239 E0.04769
G1 X234.179 Y105.761 E0.04769
G1 X233.928 Y107.261 E0.04769
G1 X233.434 Y108.700 E0.04769
G1 X232.710 Y110.038 E0.04769
G1 X231.776 Y111.238 E0.04769
G1 X230.657 Y112.268 E0.04769
G1 X229.384 Y113.100 E0.04769
G1 X227.991 Y113.711 E0.04769
G1 X226.516 Y114.085 E0.04769
G1 X224.967 Y114.213 E0.04872
G1 X25.033 Y114.213 E6.26882
M73 P2 R47
G1 X23.484 Y114.085 E0.04872
G1 X22.009 Y113.711 E0.04769
G1 X20.616 Y113.100 E0.04769
G1 X19.343 Y112.268 E0.04769
G1 X18.224 Y111.238 E0.04769
G1 X17.290 Y110.038 E0.04769
G1 X16.566 Y108.700 E0.04769
G1 X16.072 Y107.261 E0.04769
G1 X15.821 Y105.761 E0.04769
G1 X15.821 Y104.239 E0.04769
G1 X16.072 Y102.739 E0.04769
G1 X16.566 Y101.300 E0.04769
G1 X17.290 Y99.962 E0.04769
G1 X18.224 Y98.762 E0.04769
G1 X19.343 Y97.732 E0.04769
G1 X20.616 Y96.900 E0.04769
G1 X22.009 Y96.289 E0.04769
G1 X23.426 Y95.930 E0.04581
G1 X23.333 Y95.565 F10800.000
;TYPE:External perimeter
G1 F1200.000
G1 X23.422 Y95.542 E0.00286
G1 X25.017 Y95.410 E0.05019
G1 X225.057 Y95.416 E6.27212
G1 X226.578 Y95.542 E0.04786
G1 X228.113 Y95.931 E0.04965
G1 X229.564 Y96.567 E0.04965
G1 X230.889 Y97.433 E0.04965
G1 X232.055 Y98.506 E0.04965
G1 X233.027 Y99.756 E0.04965
G1 X233.781 Y101.148 E0.04965
G1 X234.295 Y102.646 E0.04965
G1 X234.556 Y104.208 E0.04965
G1 X234.556 Y105.792 E0.04965
G1 X234.295 Y107.354 E0.04965
G1 X233.781 Y108.852 E0.04965
G1 X233.027 Y110.244 E0.04965
G1 X232.055 Y111.494 E0.04965
G1 X230.889 Y112.567 E0.04965
G1 X229.564 Y113.433 E0.04965
G1 X228.113 Y114.069 E0.04965
G1 X226.578 Y114.458 E0.04965
G1 X224.983 Y114.590 E0.05019
G1 X25.017 Y114.590 E6.26980
G1 X23.422 Y114.458 E0.05019
G1 X21.887 Y114.069 E0.04965
G1 X20.436 Y113.433 E0.04965
G1 X19.111 Y112.567 E0.04965
G1 X17.945 Y111.494 E0.04965
G1 X16.973 Y110.244 E0.04965
G1 X16.219 Y108.852 E0.04965
G1 X15.705 Y107.354 E0.04965
G1 X15.444 Y105.792 E0.04965
G1 X15.444 Y104.208 E0.04965
G1 X15.705 Y102.646 E0.04965
G1 X16.219 Y101.148 E0.04965
G1 X16.973 Y99.756 E0.04965
G1 X17.945 Y98.506 E0.04965
G1 X19.111 Y97.433 E0.04965
G1 X20.436 Y96.567 E0.04965
G1 X21.887 Y95.931 E0.04965
G1 X23.275 Y95.579 E0.04491
G1 X23.399 Y95.628 F10800.000
;WIPE_START
G1 F8640.000
G1 X23.422 Y95.542 E-0.03492
G1 X25.017 Y95.410 E-0.36959
G1 X26.556 Y95.410 E-0.35548
;WIPE_END
G1 E-0.04000 F2100.000
G1 Z0.600 F10800.000
G1 X228.884 Y96.804
G1 Z0.200
G1 E0.80000 F2100.000
;TYPE:Solid infill
;WIDTH:0.420312
G1 F1200.000
G1 X232.798 Y100.718 E0.17368
G1 X233.175 Y101.414 E0.02485
G1 X233.287 Y101.740 E0.01082
G1 X228.263 Y96.717 E0.22292
G1 X227.898 Y96.557 E0.01251
G1 X227.458 Y96.446 E0.01425
G1 X233.566 Y102.553 E0.27104
G1 X233.653 Y102.809 E0.00848
G1 X233.727 Y103.248 E0.01397
G1 X226.743 Y96.265 E0.30990
G1 X226.469 Y96.195 E0.00887
G1 X226.111 Y96.166 E0.01130
G1 X233.833 Y103.889 E0.34273
M73 P3 R47
G1 X233.896 Y104.263 E0.01191
G1 X233.896 Y104.485 E0.00696
G1 X225.529 Y96.117 E0.37133
G1 X224.954 Y96.076 E0.01809
G1 X233.896 Y105.018 E0.39685
G1 X233.896 Y105.552 E0.01675
G1 X224.420 Y96.076 E0.42054
G1 X223.886 Y96.076 E0.01675
G1 X233.846 Y106.036 E0.44201
G1 X233.770 Y106.493 E0.01455
G1 X223.352 Y96.076 E0.46231
G1 X222.819 Y96.076 E0.01675
G1 X233.693 Y106.951 E0.48261
G1 X233.653 Y107.191 E0.00765
G1 X233.589 Y107.380 E0.00625
G1 X222.285 Y96.076 E0.50164
G1 X221.751 Y96.076 E0.01675
G1 X233.452 Y107.777 E0.51928
G1 X233.316 Y108.174 E0.01318
G1 X221.217 Y96.076 E0.53691
G1 X220.684 Y96.076 E0.01675
G1 X233.179 Y108.572 E0.55454
G1 X232.994 Y108.920 E0.01238
G1 X220.150 Y96.076 E0.56999
G1 X219.616 Y96.076 E0.01675
G1 X232.806 Y109.266 E0.58536
G1 X232.619 Y109.612 E0.01236
G1 X227.514 Y104.508 E0.22654
G1 X227.579 Y105.000 E0.01559
G1 X227.567 Y105.094 E0.00297
G1 X232.421 Y109.948 E0.21544
G1 X232.188 Y110.249 E0.01193
G1 X227.505 Y105.565 E0.20783
G1 X227.491 Y105.668 E0.00323
G1 X227.369 Y105.963 E0.01004
G1 X231.954 Y110.549 E0.20350
G1 X231.721 Y110.849 E0.01193
G1 X227.202 Y106.330 E0.20052
G1 X226.971 Y106.632 E0.01194
G1 X231.472 Y111.134 E0.19976
M73 P3 R46
G1 X231.194 Y111.390 E0.01185
G1 X226.713 Y106.909 E0.19886
G1 X226.411 Y107.140 E0.01194
G1 X230.916 Y111.645 E0.19992
G1 X230.638 Y111.901 E0.01185
G1 X226.064 Y107.327 E0.20299
G1 X225.679 Y107.476 E0.01295
G1 X230.340 Y112.137 E0.20686
G1 X230.018 Y112.348 E0.01210
G1 X225.218 Y107.548 E0.21301
G1 X225.011 Y107.581 E0.00657
G1 X224.672 Y107.536 E0.01073
G1 X229.817 Y112.682 E0.22836
;WIPE_START
G1 F8640.000
G1 X227.490 Y110.354 E-0.76000
;WIPE_END
G1 E-0.04000 F2100.000
G1 Z0.600 F10800.000
G1 X225.721 Y102.715
G1 Z0.200
G1 E0.80000 F2100.000
G1 F1200.000
G1 X219.083 Y96.076 E0.29463
G1 X218.549 Y96.076 E0.01675
G1 X224.906 Y102.433 E0.28213
G1 X224.435 Y102.495 E0.01493
G1 X218.015 Y96.076 E0.28489
G1 X217.481 Y96.076 E0.01675
G1 X224.037 Y102.631 E0.29092
G1 X223.670 Y102.798 E0.01265
G1 X216.948 Y96.076 E0.29831
G1 X216.414 Y96.076 E0.01675
G1 X223.368 Y103.029 E0.30860
G1 X223.176 Y103.176 E0.00757
G1 X223.091 Y103.287 E0.00438
G1 X215.880 Y96.076 E0.32002
G1 X215.346 Y96.076 E0.01675
G1 X222.860 Y103.589 E0.33343
G1 X222.766 Y103.710 E0.00481
G1 X222.673 Y103.936 E0.00766
G1 X214.813 Y96.076 E0.34883
G1 X214.279 Y96.076 E0.01675
G1 X222.517 Y104.313 E0.36558
G1 X222.450 Y104.780 E0.01480
G1 X213.745 Y96.076 E0.38630
G1 X213.211 Y96.076 E0.01675
G1 X222.661 Y105.525 E0.41936
;WIPE_START
G1 F8640.000
G1 X220.334 Y103.198 E-0.76000
;WIPE_END
G1 E-0.04000 F2100.000
G1 Z0.600 F10800.000
G1 X229.495 Y112.892
G1 Z0.200
G1 E0.80000 F2100.000
G1 F1200.000
G1 X223.924 Y107.322 E0.24720
G1 X223.710 Y107.234 E0.00726
G1 X223.176 Y106.824 E0.02113
G1 X222.766 Y106.290 E0.02113
G1 X222.678 Y106.076 E0.00726
G1 X212.678 Y96.076 E0.44379
G1 X212.144 Y96.076 E0.01675
G1 X229.019 Y112.951 E0.74891
G1 X228.648 Y113.114 E0.01271
G1 X211.610 Y96.076 E0.75613
G1 X211.077 Y96.076 E0.01675
G1 X228.277 Y113.277 E0.76335
G1 X227.907 Y113.439 E0.01271
G1 X210.543 Y96.076 E0.77057
G1 X210.009 Y96.076 E0.01675
G1 X227.482 Y113.548 E0.77541
M73 P4 R46
G1 X227.056 Y113.656 E0.01379
G1 X209.475 Y96.076 E0.78020
G1 X208.942 Y96.076 E0.01675
G1 X226.630 Y113.764 E0.78499
G1 X226.469 Y113.805 E0.00521
G1 X226.163 Y113.830 E0.00966
G1 X208.408 Y96.076 E0.78792
G1 X207.874 Y96.075 E0.01675
G1 X225.670 Y113.871 E0.78973
G1 X225.177 Y113.912 E0.01552
G1 X207.340 Y96.075 E0.79155
G1 X206.807 Y96.075 E0.01675
G1 X224.661 Y113.930 E0.79236
G1 X224.128 Y113.930 E0.01675
G1 X206.273 Y96.075 E0.79236
G1 X205.739 Y96.075 E0.01675
G1 X223.594 Y113.930 E0.79236
G1 X223.060 Y113.930 E0.01675
G1 X205.206 Y96.075 E0.79236
G1 X204.672 Y96.075 E0.01675
G1 X222.527 Y113.930 E0.79236
G1 X221.993 Y113.930 E0.01675
G1 X204.138 Y96.075 E0.79237
G1 X203.604 Y96.075 E0.01675
G1 X221.459 Y113.930 E0.79237
G1 X220.925 Y113.930 E0.01675
G1 X203.071 Y96.075 E0.79237
G1 X202.537 Y96.075 E0.01675
G1 X220.392 Y113.930 E0.79237
G1 X219.858 Y113.930 E0.01675
G1 X202.003 Y96.075 E0.79237
G1 X201.469 Y96.075 E0.01675
G1 X219.324 Y113.930 E0.79237
G1 X218.791 Y113.930 E0.01675
G1 X200.936 Y96.075 E0.79237
G1 X200.402 Y96.075 E0.01675
G1 X218.257 Y113.930 E0.79237
G1 X217.723 Y113.930 E0.01675
G1 X199.868 Y96.075 E0.79237
G1 X199.335 Y96.075 E0.01675
G1 X217.189 Y113.930 E0.79237
G1 X216.656 Y113.930 E0.01675
G1 X198.801 Y96.075 E0.79237
G1 X198.267 Y96.075 E0.01675
G1 X216.122 Y113.930 E0.79237
M73 P5 R46
G1 X215.588 Y113.930 E0.01675
G1 X197.733 Y96.075 E0.79237
G1 X197.200 Y96.075 E0.01675
G1 X215.055 Y113.930 E0.79237
G1 X214.521 Y113.930 E0.01675
G1 X196.666 Y96.075 E0.79238
G1 X196.132 Y96.075 E0.01675
G1 X213.987 Y113.930 E0.79238
G1 X213.453 Y113.930 E0.01675
G1 X195.598 Y96.075 E0.79238
G1 X195.065 Y96.075 E0.01675
G1 X212.920 Y113.930 E0.79238
G1 X212.386 Y113.930 E0.01675
G1 X194.531 Y96.075 E0.79238
G1 X193.997 Y96.075 E0.01675
G1 X211.852 Y113.930 E0.79238
G1 X211.319 Y113.930 E0.01675
G1 X193.464 Y96.075 E0.79238
G1 X192.930 Y96.075 E0.01675
G1 X210.785 Y113.930 E0.79238
G1 X210.251 Y113.930 E0.01675
G1 X192.396 Y96.075 E0.79238
M73 P5 R45
G1 X191.862 Y96.075 E0.01675
G1 X209.717 Y113.930 E0.79238
G1 X209.184 Y113.930 E0.01675
G1 X191.329 Y96.075 E0.79238
G1 X190.795 Y96.075 E0.01675
G1 X208.650 Y113.930 E0.79238
G1 X208.116 Y113.930 E0.01675
G1 X190.261 Y96.075 E0.79238
G1 X189.727 Y96.075 E0.01675
G1 X207.583 Y113.930 E0.79238
G1 X207.049 Y113.930 E0.01675
G1 X189.194 Y96.075 E0.79239
G1 X188.660 Y96.075 E0.01675
G1 X206.515 Y113.930 E0.79239
G1 X205.981 Y113.930 E0.01675
G1 X188.126 Y96.075 E0.79239
G1 X187.592 Y96.075 E0.01675
G1 X205.448 Y113.930 E0.79239
G1 X204.914 Y113.930 E0.01675
G1 X187.059 Y96.075 E0.79239
G1 X186.525 Y96.075 E0.01675
G1 X204.380 Y113.930 E0.79239
G1 X203.847 Y113.930 E0.01675
G1 X185.991 Y96.075 E0.79239
M73 P6 R45
G1 X185.458 Y96.075 E0.01675
G1 X203.313 Y113.930 E0.79239
G1 X202.779 Y113.930 E0.01675
