; generated by PrusaSlicer 2.3.3+win64 on 2021-12-05 at 17:14:32 UTC

; 

; external perimeters extrusion width = 0.45mm
; perimeters extrusion width = 0.45mm
; infill extrusion width = 0.45mm
; solid infill extrusion width = 0.45mm
; top infill extrusion width = 0.40mm
; first layer extrusion width = 0.42mm

M73 P0 R57
M201 X9000 Y9000 Z500 E10000 ; sets maximum accelerations, mm/sec^2
M203 X500 Y500 Z12 E120 ; sets maximum feedrates, mm/sec
M204 P2000 R1500 T2000 ; sets acceleration (P, T) and retract acceleration (R), mm/sec^2
M205 X10.00 Y10.00 Z0.20 E2.50 ; sets the jerk limits, mm/sec
M205 S0 T0 ; sets the minimum extruding and travel feed rate, mm/sec
M107
;TYPE:Custom
M862.3 P "MK2S" ; printer model check
M862.1 P0.4 ; nozzle diameter check
M115 U3.2.3 ; tell printer latest fw version
G90 ; use absolute coordinates
M83 ; extruder relative mode
M204 S2000 T1500 ; MK2 firmware only supports the old M204 format
M104 S215 ; set extruder temp
M140 S60 ; set bed temp
M190 S60 ; wait for bed temp
M109 S215 ; wait for extruder temp
G28 W ; home all without mesh bed level
G80 ; mesh bed leveling
G1 Y-3.0 F1000.0 ; go outside print area
G92 E0.0
G1 X60.0 E9.0  F1000.0 ; intro line
G1 X100.0 E12.5 F1000.0 ; intro line
G92 E0.0
G21 ; set units to millimeters
G90 ; use absolute coordinates
M83 ; use relative distances for extrusion
M900 K0.05 ; Filament gcode LA 1.5
M900 K30 ; Filament gcode LA 1.0
;LAYER_CHANGE
;Z:0.2
;HEIGHT:0.2
;BEFORE_LAYER_CHANGE
G92 E0.0
;0.2


M73 P0 R56
G1 E-0.80000 F2100.000
G1 Z0.400 F10800.000
;AFTER_LAYER_CHANGE
;0.2
G1 X149.672 Y78.509
G1 Z0.200
G1 E0.80000 F2100.000
M204 S1000
;TYPE:Skirt
;WIDTH:0.42
G1 F1200.000
G1 X150.162 Y79.211 E0.02684
G1 X150.320 Y79.684 E0.01562
G1 X150.377 Y80.182 E0.01574
G1 X150.377 Y100.207 E0.62786
G1 X150.316 Y100.735 E0.01668
G1 X137.176 Y130.757 E1.02750
G1 X136.896 Y131.235 E0.01740
G1 X136.494 Y131.650 E0.01811
G1 X136.007 Y131.954 E0.01799
G1 X127.045 Y135.840 E0.30628
G1 X125.548 Y136.152 E0.04796
G1 X124.431 Y136.151 E0.03502
G1 X123.632 Y136.029 E0.02534
G1 X122.447 Y135.644 E0.03907
G1 X114.004 Y131.959 E0.28884
G1 X113.466 Y131.616 E0.02000
G1 X113.036 Y131.140 E0.02012
G1 X99.813 Y101.131 E1.02821
G1 X99.623 Y100.212 E0.02942
G1 X99.623 Y80.192 E0.62771
G1 X99.684 Y79.663 E0.01668
G1 X99.857 Y79.172 E0.01633
G1 X100.132 Y78.729 E0.01633
G1 X100.497 Y78.358 E0.01633
G1 X100.934 Y78.075 E0.01633
G1 X109.475 Y74.344 E0.29223
G1 X110.144 Y74.100 E0.02232
G1 X111.225 Y73.871 E0.03466
G1 X138.004 Y73.822 E0.83963
G1 X139.230 Y73.943 E0.03863
G1 X140.088 Y74.176 E0.02788
G1 X148.965 Y78.027 E0.30339
G1 X149.622 Y78.476 E0.02496
; printing object Body1 id:1 copy 0
;WIPE_START
G1 F8640.000
G1 X150.162 Y79.211 E-0.21070
G1 X150.320 Y79.684 E-0.11500
G1 X150.377 Y80.182 E-0.11588
G1 X150.377 Y81.561 E-0.31842
;WIPE_END
G1 E-0.04000 F2100.000
G1 Z0.600 F10800.000
G1 X113.980 Y98.861
G1 Z0.200
G1 E0.80000 F2100.000
;TYPE:Perimeter
G1 F1200.000
G1 X114.178 Y99.215 E0.01271
G1 X114.313 Y99.597 E0.01271
G1 X114.381 Y99.997 E0.01271
G1 X114.381 Y100.402 E0.01271
G1 X114.313 Y100.801 E0.01271
G1 X114.178 Y101.184 E0.01271
G1 X113.980 Y101.538 E0.01271
G1 X113.725 Y101.853 E0.01271
G1 X113.421 Y102.121 E0.01271
G1 X113.099 Y102.319 E0.01184
G1 X112.703 Y102.484 E0.01345
G1 X112.304 Y102.570 E0.01282
G1 X111.899 Y102.587 E0.01271
G1 X111.496 Y102.536 E0.01271
G1 X111.109 Y102.417 E0.01271
G1 X110.772 Y102.247 E0.01184
G1 X110.424 Y101.996 E0.01345
G1 X110.141 Y101.701 E0.01282
G1 X109.914 Y101.365 E0.01271
G1 X109.747 Y100.995 E0.01271
G1 X109.644 Y100.603 E0.01271
G1 X109.610 Y100.199 E0.01271
G1 X109.644 Y99.795 E0.01271
G1 X109.747 Y99.403 E0.01271
G1 X109.914 Y99.034 E0.01271
G1 X110.141 Y98.698 E0.01271
G1 X110.421 Y98.405 E0.01271
G1 X110.747 Y98.164 E0.01271
G1 X111.109 Y97.982 E0.01271
G1 X111.496 Y97.863 E0.01271
G1 X111.871 Y97.815 E0.01184
G1 X112.300 Y97.828 E0.01345
G1 X112.700 Y97.914 E0.01282
G1 X113.076 Y98.065 E0.01271
G1 X113.421 Y98.278 E0.01271
G1 X113.725 Y98.546 E0.01271
G1 X113.942 Y98.814 E0.01083
G1 X113.649 Y99.051 F10800.000
;TYPE:External perimeter
G1 F1200.000
G1 X113.833 Y99.371 E0.01156
G1 X113.947 Y99.692 E0.01070
G1 X114.004 Y100.029 E0.01070
G1 X114.004 Y100.370 E0.01070
G1 X113.947 Y100.706 E0.01070
G1 X113.833 Y101.028 E0.01070
G1 X113.667 Y101.326 E0.01070
G1 X113.452 Y101.591 E0.01070
G1 X113.196 Y101.816 E0.01070
G1 X112.927 Y101.982 E0.00990
G1 X112.590 Y102.122 E0.01144
G1 X112.255 Y102.194 E0.01074
G1 X111.915 Y102.209 E0.01070
G1 X111.576 Y102.166 E0.01070
G1 X111.250 Y102.066 E0.01070
G1 X110.968 Y101.923 E0.00990
G1 X110.672 Y101.710 E0.01144
G1 X110.435 Y101.463 E0.01074
G1 X110.244 Y101.180 E0.01070
G1 X110.103 Y100.869 E0.01070
G1 X110.017 Y100.539 E0.01070
G1 X109.989 Y100.199 E0.01070
G1 X110.017 Y99.859 E0.01070
G1 X110.103 Y99.529 E0.01070
G1 X110.244 Y99.218 E0.01070
G1 X110.435 Y98.936 E0.01070
G1 X110.671 Y98.689 E0.01070
G1 X110.945 Y98.486 E0.01070
G1 X111.250 Y98.333 E0.01070
G1 X111.576 Y98.233 E0.01070
G1 X111.890 Y98.193 E0.00990
G1 X112.254 Y98.204 E0.01144
G1 X112.589 Y98.276 E0.01074
G1 X112.906 Y98.403 E0.01070
G1 X113.196 Y98.582 E0.01070
G1 X113.452 Y98.807 E0.01070
G1 X113.611 Y99.004 E0.00794
G1 X114.017 Y99.022 F10800.000
;WIPE_START
G1 F8640.000
G1 X113.833 Y99.371 E-0.09884
G1 X113.947 Y99.692 E-0.07878
G1 X114.004 Y100.029 E-0.07878
G1 X114.004 Y100.370 E-0.07878
G1 X113.947 Y100.706 E-0.07878
G1 X113.833 Y101.028 E-0.07878
G1 X113.667 Y101.326 E-0.07878
G1 X113.452 Y101.591 E-0.07878
G1 X113.196 Y101.816 E-0.07878
G1 X113.082 Y101.887 E-0.03094
;WIPE_END
G1 E-0.04000 F2100.000
G1 Z0.600 F10800.000
G1 X112.304 Y82.570
G1 Z0.200
G1 E0.80000 F2100.000
;TYPE:Perimeter
G1 F1200.000
G1 X111.899 Y82.587 E0.01271
G1 X111.496 Y82.536 E0.01271
G1 X111.109 Y82.417 E0.01271
G1 X110.772 Y82.247 E0.01184
G1 X110.424 Y81.996 E0.01345
G1 X110.141 Y81.701 E0.01282
G1 X109.914 Y81.365 E0.01271
G1 X109.747 Y80.995 E0.01271
G1 X109.644 Y80.603 E0.01271
G1 X109.610 Y80.199 E0.01271
G1 X109.644 Y79.795 E0.01271
G1 X109.747 Y79.403 E0.01271
G1 X109.914 Y79.034 E0.01271
G1 X110.141 Y78.698 E0.01271
G1 X110.421 Y78.405 E0.01271
G1 X110.747 Y78.164 E0.01271
G1 X111.109 Y77.982 E0.01271
G1 X111.496 Y77.863 E0.01271
G1 X111.871 Y77.815 E0.01184
G1 X112.300 Y77.828 E0.01345
G1 X112.700 Y77.914 E0.01282
G1 X113.076 Y78.065 E0.01271
G1 X113.421 Y78.278 E0.01271
G1 X113.725 Y78.546 E0.01271
G1 X113.980 Y78.861 E0.01271
G1 X114.178 Y79.215 E0.01271
G1 X114.313 Y79.597 E0.01271
G1 X114.381 Y79.997 E0.01271
G1 X114.381 Y80.402 E0.01271
G1 X114.313 Y80.801 E0.01271
G1 X114.178 Y81.184 E0.01271
G1 X113.980 Y81.538 E0.01271
G1 X113.725 Y81.853 E0.01271
G1 X113.421 Y82.121 E0.01271
G1 X113.099 Y82.319 E0.01184
G1 X112.703 Y82.484 E0.01345
G1 X112.362 Y82.557 E0.01094
G1 X112.283 Y82.189 F10800.000
;TYPE:External perimeter
G1 F1200.000
G1 X111.915 Y82.209 E0.01156
G1 X111.576 Y82.166 E0.01070
G1 X111.250 Y82.066 E0.01070
G1 X110.968 Y81.923 E0.00990
G1 X110.672 Y81.710 E0.01144
G1 X110.435 Y81.463 E0.01074
G1 X110.244 Y81.180 E0.01070
G1 X110.103 Y80.869 E0.01070
G1 X110.017 Y80.539 E0.01070
G1 X109.989 Y80.199 E0.01070
G1 X110.017 Y79.859 E0.01070
G1 X110.103 Y79.529 E0.01070
G1 X110.244 Y79.218 E0.01070
G1 X110.435 Y78.936 E0.01070
G1 X110.671 Y78.689 E0.01070
G1 X110.945 Y78.486 E0.01070
G1 X111.250 Y78.333 E0.01070
G1 X111.576 Y78.233 E0.01070
G1 X111.890 Y78.193 E0.00990
G1 X112.254 Y78.204 E0.01144
G1 X112.589 Y78.276 E0.01074
G1 X112.906 Y78.403 E0.01070
G1 X113.196 Y78.582 E0.01070
G1 X113.452 Y78.807 E0.01070
G1 X113.667 Y79.073 E0.01070
G1 X113.833 Y79.371 E0.01070
G1 X113.947 Y79.692 E0.01070
G1 X114.004 Y80.029 E0.01070
G1 X114.004 Y80.370 E0.01070
G1 X113.947 Y80.706 E0.01070
G1 X113.833 Y81.028 E0.01070
G1 X113.667 Y81.326 E0.01070
G1 X113.452 Y81.591 E0.01070
G1 X113.196 Y81.816 E0.01070
G1 X112.927 Y81.982 E0.00990
G1 X112.590 Y82.122 E0.01144
G1 X112.341 Y82.176 E0.00798
G1 X112.145 Y82.531 F10800.000
;WIPE_START
G1 F8640.000
G1 X111.915 Y82.209 E-0.09884
G1 X111.576 Y82.166 E-0.07878
G1 X111.250 Y82.066 E-0.07878
G1 X110.968 Y81.923 E-0.07294
G1 X110.672 Y81.710 E-0.08424
G1 X110.435 Y81.463 E-0.07908
G1 X110.244 Y81.180 E-0.07878
G1 X110.103 Y80.869 E-0.07878
G1 X110.017 Y80.539 E-0.07878
G1 X110.006 Y80.405 E-0.03101
;WIPE_END
G1 E-0.04000 F2100.000
G1 Z0.600 F10800.000
G1 X115.253 Y80.986
G1 Z0.200
G1 E0.80000 F2100.000
;TYPE:Perimeter
G1 F1200.000
G1 X121.213 Y80.986 E0.18687
G1 X121.213 Y99.412 E0.57773
G1 X115.253 Y99.412 E0.18687
G1 X115.194 Y100.535 E0.03525
G1 X115.142 Y100.867 E0.01054
G1 X115.055 Y101.192 E0.01054
G1 X114.934 Y101.506 E0.01054
G1 X114.782 Y101.805 E0.01054
G1 X114.598 Y102.087 E0.01054
G1 X114.387 Y102.348 E0.01054
G1 X114.149 Y102.586 E0.01054
G1 X113.888 Y102.798 E0.01054
G1 X113.606 Y102.981 E0.01054
G1 X113.306 Y103.133 E0.01054
G1 X112.993 Y103.254 E0.01054
G1 X112.668 Y103.341 E0.01054
G1 X112.336 Y103.394 E0.01054
G1 X112.000 Y103.411 E0.01054
G1 X111.664 Y103.394 E0.01054
G1 X111.332 Y103.341 E0.01054
G1 X111.007 Y103.254 E0.01054
G1 X110.694 Y103.133 E0.01054
G1 X110.394 Y102.981 E0.01054
G1 X110.112 Y102.798 E0.01054
G1 X109.851 Y102.586 E0.01054
G1 X109.613 Y102.348 E0.01054
G1 X109.402 Y102.087 E0.01054
G1 X109.218 Y101.805 E0.01054
G1 X109.066 Y101.506 E0.01054
G1 X108.945 Y101.192 E0.01054
G1 X108.858 Y100.867 E0.01054
G1 X108.806 Y100.535 E0.01054
G1 X108.747 Y99.412 E0.03525
G1 X102.787 Y99.412 E0.18687
G1 X102.787 Y80.986 E0.57773
G1 X108.747 Y80.986 E0.18687
G1 X108.806 Y79.864 E0.03525
G1 X108.858 Y79.531 E0.01054
G1 X108.945 Y79.207 E0.01054
G1 X109.066 Y78.893 E0.01054
G1 X109.218 Y78.593 E0.01054
G1 X109.402 Y78.311 E0.01054
G1 X109.613 Y78.050 E0.01054
G1 X109.851 Y77.812 E0.01054
G1 X110.112 Y77.601 E0.01054
G1 X110.394 Y77.418 E0.01054
G1 X110.694 Y77.265 E0.01054
G1 X111.007 Y77.145 E0.01054
G1 X111.332 Y77.058 E0.01054
G1 X111.664 Y77.005 E0.01054
G1 X112.000 Y76.987 E0.01054
G1 X112.336 Y77.005 E0.01054
G1 X112.668 Y77.058 E0.01054
G1 X112.993 Y77.145 E0.01054
G1 X113.306 Y77.265 E0.01054
G1 X113.606 Y77.418 E0.01054
G1 X113.888 Y77.601 E0.01054
G1 X114.149 Y77.812 E0.01054
G1 X114.387 Y78.050 E0.01054
G1 X114.598 Y78.311 E0.01054
G1 X114.782 Y78.593 E0.01054
G1 X114.934 Y78.893 E0.01054
G1 X115.055 Y79.207 E0.01054
G1 X115.142 Y79.531 E0.01054
G1 X115.194 Y79.864 E0.01054
G1 X115.250 Y80.926 E0.03337
G1 X115.611 Y80.609 F10800.000
;TYPE:External perimeter
G1 F1200.000
G1 X121.590 Y80.609 E0.18747
G1 X121.590 Y99.789 E0.60138
G1 X115.611 Y99.789 E0.18747
G1 X115.570 Y100.574 E0.02465
G1 X115.511 Y100.946 E0.01178
G1 X115.414 Y101.308 E0.01178
G1 X115.279 Y101.659 E0.01178
G1 X115.109 Y101.994 E0.01178
G1 X114.904 Y102.309 E0.01178
G1 X114.667 Y102.601 E0.01178
G1 X114.402 Y102.867 E0.01178
G1 X114.110 Y103.103 E0.01178
G1 X113.795 Y103.308 E0.01178
G1 X113.460 Y103.478 E0.01178
G1 X113.109 Y103.613 E0.01178
G1 X112.746 Y103.710 E0.01178
G1 X112.375 Y103.769 E0.01178
G1 X112.000 Y103.789 E0.01178
G1 X111.625 Y103.769 E0.01178
G1 X111.254 Y103.710 E0.01178
G1 X110.891 Y103.613 E0.01178
G1 X110.540 Y103.478 E0.01178
G1 X110.205 Y103.308 E0.01178
G1 X109.890 Y103.103 E0.01178
G1 X109.598 Y102.867 E0.01178
G1 X109.333 Y102.601 E0.01178
G1 X109.096 Y102.309 E0.01178
G1 X108.891 Y101.994 E0.01178
G1 X108.721 Y101.659 E0.01178
G1 X108.586 Y101.308 E0.01178
G1 X108.489 Y100.946 E0.01178
G1 X108.430 Y100.574 E0.01178
G1 X108.389 Y99.789 E0.02465
G1 X102.410 Y99.789 E0.18747
G1 X102.410 Y80.609 E0.60138
G1 X108.389 Y80.609 E0.18747
G1 X108.430 Y79.824 E0.02465
G1 X108.489 Y79.453 E0.01178
G1 X108.586 Y79.090 E0.01178
G1 X108.721 Y78.739 E0.01178
G1 X108.891 Y78.405 E0.01178
G1 X109.096 Y78.089 E0.01178
G1 X109.333 Y77.797 E0.01178
G1 X109.598 Y77.532 E0.01178
G1 X109.890 Y77.295 E0.01178
G1 X110.205 Y77.091 E0.01178
G1 X110.540 Y76.920 E0.01178
G1 X110.891 Y76.786 E0.01178
G1 X111.254 Y76.688 E0.01178
G1 X111.625 Y76.630 E0.01178
G1 X112.000 Y76.610 E0.01178
G1 X112.375 Y76.630 E0.01178
G1 X112.746 Y76.688 E0.01178
G1 X113.109 Y76.786 E0.01178
G1 X113.460 Y76.920 E0.01178
G1 X113.795 Y77.091 E0.01178
G1 X114.110 Y77.295 E0.01178
G1 X114.402 Y77.532 E0.01178
G1 X114.667 Y77.797 E0.01178
G1 X114.904 Y78.089 E0.01178
G1 X115.109 Y78.405 E0.01178
G1 X115.279 Y78.739 E0.01178
G1 X115.414 Y79.090 E0.01178
G1 X115.511 Y79.453 E0.01178
G1 X115.570 Y79.824 E0.01178
G1 X115.608 Y80.549 E0.02277
G1 X115.622 Y81.009 F10800.000
;WIPE_START
G1 F8640.000
G1 X118.899 Y80.582 E-0.76000
;WIPE_END
G1 E-0.04000 F2100.000
G1 Z0.600 F10800.000
G1 X120.333 Y81.099
G1 Z0.200
G1 E0.80000 F2100.000
;TYPE:Solid infill
;WIDTH:0.422206
G1 F1200.000
G1 X120.930 Y81.697 E0.02664
G1 X120.930 Y82.233 E0.01692
G1 X119.966 Y81.269 E0.04299
G1 X119.430 Y81.269 E0.01692
G1 X120.930 Y82.770 E0.06692
G1 X120.930 Y83.306 E0.01692
G1 X118.893 Y81.269 E0.09084
G1 X118.357 Y81.269 E0.01692
G1 X120.930 Y83.842 E0.11477
G1 X120.930 Y84.379 E0.01692
G1 X117.821 Y81.269 E0.13869
G1 X117.284 Y81.269 E0.01692
G1 X120.930 Y84.915 E0.16261
G1 X120.930 Y85.451 E0.01692
G1 X116.748 Y81.269 E0.18654
G1 X116.211 Y81.269 E0.01692
G1 X120.930 Y85.988 E0.21046
G1 X120.930 Y86.524 E0.01692
G1 X115.505 Y81.099 E0.24195
;WIPE_START
G1 F8640.000
G1 X117.833 Y83.427 E-0.76000
;WIPE_END
G1 E-0.04000 F2100.000
G1 Z0.600 F10800.000
G1 X115.030 Y79.551
G1 Z0.200
G1 E0.80000 F2100.000
G1 F1200.000
G1 X112.648 Y77.169 E0.10623
G1 X112.758 Y77.815 F10800.000
G1 F1200.000
G1 X112.225 Y77.282 E0.02378
G1 X112.000 Y77.271 E0.00709
G1 X111.693 Y77.287 E0.00970
G1 X111.940 Y77.534 E0.01103
G1 X111.453 Y77.583 E0.01544
G1 X111.244 Y77.374 E0.00934
G1 X110.844 Y77.510 E0.01333
G1 X111.040 Y77.707 E0.00877
G1 X110.679 Y77.882 E0.01266
G1 X110.490 Y77.693 E0.00843
G1 X110.175 Y77.914 E0.01214
G1 X110.359 Y78.099 E0.00825
G1 X110.234 Y78.192 E0.00494
G1 X110.078 Y78.354 E0.00708
G1 X109.894 Y78.170 E0.00823
G1 X109.646 Y78.459 E0.01200
G1 X109.834 Y78.646 E0.00838
G1 X109.629 Y78.977 E0.01229
G1 X109.438 Y78.786 E0.00852
G1 X109.325 Y79.008 E0.00785
G1 X109.269 Y79.154 E0.00492
G1 X109.467 Y79.353 E0.00887
G1 X109.362 Y79.783 E0.01398
G1 X109.142 Y79.564 E0.00978
G1 X109.135 Y79.590 E0.00086
G1 X109.080 Y80.038 E0.01422
G1 X109.520 Y80.478 E0.01965
;WIPE_START
G1 F8640.000
G1 X109.080 Y80.038 E-0.14384
G1 X109.135 Y79.590 E-0.10412
G1 X109.142 Y79.564 E-0.00629
G1 X109.362 Y79.783 E-0.07160
G1 X109.467 Y79.353 E-0.10238
G1 X109.269 Y79.154 E-0.06495
G1 X109.325 Y79.008 E-0.03605
G1 X109.438 Y78.786 E-0.05745
G1 X109.629 Y78.977 E-0.06241
G1 X109.834 Y78.646 E-0.08995
G1 X109.770 Y78.582 E-0.02096
;WIPE_END
G1 E-0.04000 F2100.000
G1 Z0.600 F10800.000
G1 X114.375 Y79.432
G1 Z0.200
G1 E0.80000 F2100.000
G1 F1200.000
G1 X114.917 Y79.975 E0.02419
G1 X114.947 Y80.541 E0.01788
G1 X114.664 Y80.258 E0.01260
M73 P1 R56
G1 X114.664 Y80.426 E0.00529
G1 X114.610 Y80.741 E0.01007
G1 X120.930 Y87.061 E0.28188
G1 X120.930 Y87.597 E0.01692
G1 X114.488 Y81.155 E0.28733
G1 X114.436 Y81.301 E0.00488
G1 X114.315 Y81.518 E0.00786
G1 X120.930 Y88.133 E0.29505
G1 X120.930 Y88.670 E0.01692
G1 X114.100 Y81.839 E0.30464
G1 X113.930 Y82.049 E0.00851
G1 X113.847 Y82.123 E0.00351
G1 X120.930 Y89.206 E0.31592
G1 X120.930 Y89.743 E0.01692
G1 X113.557 Y82.369 E0.32886
G1 X113.224 Y82.573 E0.01230
G1 X120.930 Y90.279 E0.34369
G1 X120.930 Y90.815 E0.01692
G1 X112.846 Y82.731 E0.36058
G1 X112.414 Y82.835 E0.01401
G1 X120.930 Y91.352 E0.37984
G1 X120.930 Y91.888 E0.01692
G1 X111.720 Y82.678 E0.41077
;WIPE_START
G1 F8640.000
G1 X114.048 Y85.006 E-0.76000
;WIPE_END
G1 E-0.04000 F2100.000
G1 Z0.600 F10800.000
G1 X108.892 Y80.386
G1 Z0.200
G1 E0.80000 F2100.000
G1 F1200.000
G1 X109.438 Y80.932 E0.02437
G1 X109.479 Y81.090 E0.00514
G1 X109.666 Y81.503 E0.01430
G1 X109.920 Y81.879 E0.01430
G1 X110.237 Y82.210 E0.01447
G1 X110.624 Y82.489 E0.01505
G1 X111.003 Y82.680 E0.01338
G1 X111.266 Y82.761 E0.00869
G1 X120.930 Y92.425 E0.43101
G1 X120.930 Y92.961 E0.01692
G1 X109.026 Y81.057 E0.53092
G1 X109.015 Y81.269 E0.00669
G1 X108.702 Y81.269 E0.00988
