; generated by PrusaSlicer 2.3.3+win64 on 2021-12-06 at 12:41:41 UTC

; 

; external perimeters extrusion width = 0.45mm
; perimeters extrusion width = 0.45mm
; infill extrusion width = 0.45mm
; solid infill extrusion width = 0.45mm
; top infill extrusion width = 0.40mm
; first layer extrusion width = 0.42mm

M73 P0 R102
M201 X9000 Y9000 Z500 E10000 ; sets maximum accelerations, mm/sec^2
M203 X500 Y500 Z12 E120 ; sets maximum feedrates, mm/sec
M204 P2000 R1500 T2000 ; sets acceleration (P, T) and retract acceleration (R), mm/sec^2
M205 X10.00 Y10.00 Z0.20 E2.50 ; sets the jerk limits, mm/sec
M205 S0 T0 ; sets the minimum extruding and travel feed rate, mm/sec
M107
;TYPE:Custom
M862.3 P "MK2S" ; printer model check
M862.1 P0.4 ; nozzle diameter check
M115 U3.2.3 ; tell printer latest fw version
G90 ; use absolute coordinates
M83 ; extruder relative mode
M204 S2000 T1500 ; MK2 firmware only supports the old M204 format
M104 S215 ; set extruder temp
M140 S60 ; set bed temp
M190 S60 ; wait for bed temp
M109 S215 ; wait for extruder temp
G28 W ; home all without mesh bed level
G80 ; mesh bed leveling
G1 Y-3.0 F1000.0 ; go outside print area
G92 E0.0
G1 X60.0 E9.0  F1000.0 ; intro line
G1 X100.0 E12.5 F1000.0 ; intro line
G92 E0.0
G21 ; set units to millimeters
G90 ; use absolute coordinates
M83 ; use relative distances for extrusion
M900 K0.05 ; Filament gcode LA 1.5
M900 K30 ; Filament gcode LA 1.0
;LAYER_CHANGE
;Z:0.2
;HEIGHT:0.2
;BEFORE_LAYER_CHANGE
G92 E0.0
;0.2


G1 E-0.80000 F2100.000
G1 Z0.400 F10800.000
;AFTER_LAYER_CHANGE
;0.2
G1 X69.243 Y62.747
G1 Z0.200
G1 E0.80000 F2100.000
M204 S1000
;TYPE:Skirt
;WIDTH:0.42
G1 F1200.000
G1 X69.991 Y62.623 E0.02378
G1 X180.004 Y62.623 E3.44936
M73 P0 R101
G1 X180.906 Y62.802 E0.02884
G1 X181.670 Y63.308 E0.02872
G1 X182.185 Y64.065 E0.02872
G1 X182.377 Y64.961 E0.02872
G1 X182.377 Y145.027 E2.51041
G1 X182.309 Y145.566 E0.01704
G1 X182.120 Y146.075 E0.01704
G1 X181.820 Y146.529 E0.01704
G1 X181.425 Y146.902 E0.01704
G1 X180.757 Y147.253 E0.02367
G1 X180.009 Y147.377 E0.02378
G1 X69.989 Y147.377 E3.44960
G1 X69.445 Y147.311 E0.01716
G1 X68.931 Y147.123 E0.01716
G1 X68.474 Y146.823 E0.01716
G1 X68.098 Y146.425 E0.01716
G1 X67.747 Y145.757 E0.02367
G1 X67.623 Y145.013 E0.02367
G1 X67.623 Y64.989 E2.50909
G1 X67.689 Y64.445 E0.01716
G1 X67.877 Y63.931 E0.01716
G1 X68.177 Y63.474 E0.01716
G1 X68.575 Y63.098 E0.01716
G1 X69.190 Y62.775 E0.02178
; printing object Body1 id:0 copy 0
;WIPE_START
G1 F8640.000
G1 X69.991 Y62.623 E-0.18835
G1 X72.467 Y62.623 E-0.57165
;WIPE_END
G1 E-0.04000 F2100.000
G1 Z0.600 F10800.000
G1 X136.990 Y126.167
G1 Z0.200
G1 E0.80000 F2100.000
;TYPE:Perimeter
G1 F1200.000
G1 X137.754 Y125.610 E0.02965
G1 X138.583 Y125.241 E0.02845
G1 X139.543 Y125.033 E0.03081
G1 X140.454 Y125.033 E0.02857
G1 X141.381 Y125.227 E0.02968
G1 X142.246 Y125.610 E0.02966
G1 X143.010 Y126.167 E0.02966
G1 X143.641 Y126.873 E0.02968
G1 X144.096 Y127.660 E0.02850
G1 X144.392 Y128.559 E0.02968
G1 X144.491 Y129.500 E0.02966
G1 X144.392 Y130.441 E0.02966
G1 X144.096 Y131.340 E0.02968
G1 X143.641 Y132.127 E0.02850
G1 X143.010 Y132.833 E0.02968
G1 X142.246 Y133.390 E0.02965
G1 X141.417 Y133.759 E0.02845
G1 X140.457 Y133.967 E0.03081
G1 X139.546 Y133.967 E0.02857
G1 X138.619 Y133.773 E0.02968
G1 X137.754 Y133.390 E0.02966
G1 X136.990 Y132.833 E0.02966
G1 X136.359 Y132.127 E0.02968
G1 X135.904 Y131.340 E0.02850
G1 X135.608 Y130.441 E0.02968
G1 X135.509 Y129.500 E0.02966
G1 X135.608 Y128.559 E0.02966
G1 X135.904 Y127.660 E0.02968
G1 X136.359 Y126.873 E0.02850
G1 X136.950 Y126.212 E0.02780
G1 X137.231 Y126.463 F10800.000
;TYPE:External perimeter
G1 F1200.000
G1 X137.944 Y125.939 E0.02775
G1 X138.701 Y125.602 E0.02598
G1 X139.584 Y125.410 E0.02833
G1 X140.415 Y125.410 E0.02608
G1 X141.265 Y125.587 E0.02721
G1 X142.056 Y125.939 E0.02715
G1 X142.756 Y126.448 E0.02715
G1 X143.334 Y127.095 E0.02720
G1 X143.750 Y127.815 E0.02605
G1 X144.021 Y128.639 E0.02720
G1 X144.112 Y129.500 E0.02715
G1 X144.021 Y130.361 E0.02715
G1 X143.750 Y131.185 E0.02720
G1 X143.334 Y131.905 E0.02605
G1 X142.756 Y132.552 E0.02720
G1 X142.056 Y133.061 E0.02714
G1 X141.299 Y133.398 E0.02598
G1 X140.416 Y133.590 E0.02833
G1 X139.585 Y133.590 E0.02608
G1 X138.735 Y133.413 E0.02721
G1 X137.944 Y133.061 E0.02715
G1 X137.244 Y132.552 E0.02715
G1 X136.666 Y131.905 E0.02720
G1 X136.250 Y131.185 E0.02605
G1 X135.979 Y130.361 E0.02720
G1 X135.888 Y129.500 E0.02715
G1 X135.979 Y128.639 E0.02715
G1 X136.250 Y127.815 E0.02720
G1 X136.666 Y127.095 E0.02605
G1 X137.191 Y126.508 E0.02470
G1 X137.146 Y126.072 F10800.000
;WIPE_START
G1 F8640.000
G1 X137.944 Y125.939 E-0.21797
G1 X138.701 Y125.602 E-0.19136
G1 X139.584 Y125.410 E-0.20860
G1 X140.199 Y125.410 E-0.14207
;WIPE_END
G1 E-0.04000 F2100.000
G1 Z0.600 F10800.000
G1 X152.927 Y138.803
G1 Z0.200
G1 E0.80000 F2100.000
;TYPE:Perimeter
G1 F1200.000
G1 X153.307 Y138.307 E0.01959
G1 X153.803 Y137.927 E0.01959
G1 X154.380 Y137.688 E0.01959
G1 X154.953 Y137.612 E0.01811
G1 X155.614 Y137.685 E0.02085
G1 X156.197 Y137.927 E0.01979
G1 X156.693 Y138.307 E0.01959
G1 X157.073 Y138.803 E0.01959
G1 X157.312 Y139.380 E0.01959
G1 X157.394 Y140.000 E0.01959
G1 X157.312 Y140.620 E0.01959
G1 X157.091 Y141.153 E0.01811
G1 X156.698 Y141.689 E0.02085
G1 X156.197 Y142.073 E0.01979
G1 X155.620 Y142.312 E0.01959
G1 X155.000 Y142.394 E0.01959
G1 X154.380 Y142.312 E0.01959
G1 X153.803 Y142.073 E0.01959
G1 X153.307 Y141.693 E0.01959
G1 X152.927 Y141.197 E0.01959
G1 X152.688 Y140.620 E0.01959
G1 X152.606 Y140.000 E0.01959
G1 X152.688 Y139.380 E0.01959
G1 X152.904 Y138.858 E0.01771
G1 X153.252 Y139.003 F10800.000
;TYPE:External perimeter
G1 F1200.000
G1 X153.576 Y138.576 E0.01679
G1 X153.993 Y138.256 E0.01648
G1 X154.479 Y138.055 E0.01648
G1 X154.957 Y137.992 E0.01512
G1 X155.519 Y138.054 E0.01773
G1 X156.007 Y138.256 E0.01655
G1 X156.424 Y138.576 E0.01648
G1 X156.744 Y138.993 E0.01648
G1 X156.945 Y139.479 E0.01648
G1 X157.014 Y140.000 E0.01648
G1 X156.945 Y140.521 E0.01648
G1 X156.760 Y140.967 E0.01512
G1 X156.426 Y141.422 E0.01773
G1 X156.007 Y141.744 E0.01655
G1 X155.521 Y141.945 E0.01648
G1 X155.000 Y142.014 E0.01648
G1 X154.479 Y141.945 E0.01648
G1 X153.993 Y141.744 E0.01648
G1 X153.576 Y141.424 E0.01648
G1 X153.256 Y141.007 E0.01648
G1 X153.055 Y140.521 E0.01648
G1 X152.986 Y140.000 E0.01648
G1 X153.055 Y139.479 E0.01648
G1 X153.229 Y139.058 E0.01428
G1 X153.051 Y138.657 F10800.000
;WIPE_START
G1 F8640.000
G1 X153.576 Y138.576 E-0.13713
G1 X153.993 Y138.256 E-0.12137
G1 X154.479 Y138.055 E-0.12137
G1 X154.957 Y137.992 E-0.11133
G1 X155.519 Y138.054 E-0.13060
G1 X156.007 Y138.256 E-0.12189
G1 X156.063 Y138.299 E-0.01631
;WIPE_END
G1 E-0.04000 F2100.000
G1 Z0.600 F10800.000
G1 X172.606 Y140.000
G1 Z0.200
G1 E0.80000 F2100.000
;TYPE:Perimeter
G1 F1200.000
G1 X172.688 Y139.380 E0.01959
G1 X172.927 Y138.803 E0.01959
G1 X173.307 Y138.307 E0.01959
G1 X173.803 Y137.927 E0.01959
G1 X174.380 Y137.688 E0.01959
G1 X174.953 Y137.612 E0.01811
G1 X175.614 Y137.685 E0.02085
G1 X176.197 Y137.927 E0.01979
G1 X176.693 Y138.307 E0.01959
G1 X177.073 Y138.803 E0.01959
G1 X177.312 Y139.380 E0.01959
G1 X177.394 Y140.000 E0.01959
G1 X177.312 Y140.620 E0.01959
G1 X177.073 Y141.197 E0.01959
G1 X176.693 Y141.693 E0.01959
G1 X176.197 Y142.073 E0.01959
G1 X175.620 Y142.312 E0.01959
G1 X175.000 Y142.394 E0.01959
G1 X174.380 Y142.312 E0.01959
G1 X173.803 Y142.073 E0.01959
G1 X173.307 Y141.693 E0.01959
G1 X172.927 Y141.197 E0.01959
G1 X172.688 Y140.620 E0.01959
G1 X172.614 Y140.059 E0.01771
G1 X172.988 Y140.010 F10800.000
;TYPE:External perimeter
G1 F1200.000
G1 X173.055 Y139.479 E0.01679
G1 X173.256 Y138.993 E0.01648
G1 X173.576 Y138.576 E0.01648
G1 X173.993 Y138.256 E0.01648
G1 X174.479 Y138.055 E0.01648
G1 X174.957 Y137.992 E0.01512
G1 X175.519 Y138.054 E0.01773
G1 X176.007 Y138.256 E0.01655
G1 X176.424 Y138.576 E0.01648
G1 X176.744 Y138.993 E0.01648
G1 X176.945 Y139.479 E0.01648
G1 X177.014 Y140.000 E0.01648
G1 X176.945 Y140.521 E0.01648
G1 X176.744 Y141.007 E0.01648
G1 X176.424 Y141.424 E0.01648
G1 X176.007 Y141.744 E0.01648
G1 X175.521 Y141.945 E0.01648
G1 X175.000 Y142.014 E0.01648
G1 X174.479 Y141.945 E0.01648
G1 X173.993 Y141.744 E0.01648
G1 X173.576 Y141.424 E0.01648
G1 X173.256 Y141.007 E0.01648
G1 X173.055 Y140.521 E0.01648
G1 X172.996 Y140.070 E0.01428
G1 X172.641 Y139.812 F10800.000
;WIPE_START
G1 F8640.000
G1 X173.055 Y139.479 E-0.13713
G1 X173.256 Y138.993 E-0.12137
G1 X173.576 Y138.576 E-0.12137
G1 X173.993 Y138.256 E-0.12137
G1 X174.479 Y138.055 E-0.12137
G1 X174.957 Y137.992 E-0.11133
G1 X175.069 Y138.005 E-0.02605
;WIPE_END
G1 E-0.04000 F2100.000
G1 Z0.600 F10800.000
G1 X175.000 Y122.394
G1 Z0.200
G1 E0.80000 F2100.000
;TYPE:Perimeter
G1 F1200.000
G1 X174.380 Y122.312 E0.01959
G1 X173.847 Y122.091 E0.01811
G1 X173.311 Y121.698 E0.02085
G1 X172.927 Y121.197 E0.01979
G1 X172.688 Y120.620 E0.01959
G1 X172.606 Y120.000 E0.01959
G1 X172.688 Y119.380 E0.01959
G1 X172.927 Y118.803 E0.01959
G1 X173.307 Y118.307 E0.01959
G1 X173.803 Y117.927 E0.01959
G1 X174.380 Y117.688 E0.01959
G1 X174.953 Y117.612 E0.01811
G1 X175.614 Y117.685 E0.02085
G1 X176.197 Y117.927 E0.01979
G1 X176.693 Y118.307 E0.01959
G1 X177.073 Y118.803 E0.01959
G1 X177.312 Y119.380 E0.01959
G1 X177.394 Y120.000 E0.01959
G1 X177.312 Y120.620 E0.01959
G1 X177.073 Y121.197 E0.01959
G1 X176.693 Y121.693 E0.01959
G1 X176.197 Y122.073 E0.01959
G1 X175.620 Y122.312 E0.01959
G1 X175.059 Y122.386 E0.01771
G1 X175.010 Y122.012 F10800.000
;TYPE:External perimeter
G1 F1200.000
G1 X174.479 Y121.945 E0.01679
G1 X174.033 Y121.760 E0.01512
G1 X173.578 Y121.426 E0.01773
G1 X173.256 Y121.007 E0.01655
G1 X173.055 Y120.521 E0.01648
G1 X172.986 Y120.000 E0.01648
G1 X173.055 Y119.479 E0.01648
G1 X173.256 Y118.993 E0.01648
G1 X173.576 Y118.576 E0.01648
G1 X173.993 Y118.256 E0.01648
G1 X174.479 Y118.055 E0.01648
G1 X174.957 Y117.992 E0.01512
G1 X175.519 Y118.054 E0.01773
G1 X176.007 Y118.256 E0.01655
G1 X176.424 Y118.576 E0.01648
G1 X176.744 Y118.993 E0.01648
G1 X176.945 Y119.479 E0.01648
G1 X177.014 Y120.000 E0.01648
G1 X176.945 Y120.521 E0.01648
G1 X176.744 Y121.007 E0.01648
G1 X176.424 Y121.424 E0.01648
G1 X176.007 Y121.744 E0.01648
G1 X175.521 Y121.945 E0.01648
G1 X175.070 Y122.004 E0.01428
G1 X174.812 Y122.359 F10800.000
;WIPE_START
G1 F8640.000
G1 X174.479 Y121.945 E-0.13713
G1 X174.033 Y121.760 E-0.11133
G1 X173.578 Y121.426 E-0.13060
G1 X173.256 Y121.007 E-0.12189
G1 X173.055 Y120.521 E-0.12137
G1 X172.986 Y120.000 E-0.12137
G1 X172.996 Y119.930 E-0.01631
;WIPE_END
G1 E-0.04000 F2100.000
G1 Z0.600 F10800.000
G1 X175.000 Y72.394
G1 Z0.200
G1 E0.80000 F2100.000
;TYPE:Perimeter
G1 F1200.000
G1 X174.380 Y72.312 E0.01959
G1 X173.803 Y72.073 E0.01959
G1 X173.307 Y71.693 E0.01959
G1 X172.927 Y71.197 E0.01959
G1 X172.688 Y70.620 E0.01959
G1 X172.606 Y70.000 E0.01959
G1 X172.688 Y69.380 E0.01959
G1 X172.927 Y68.803 E0.01959
G1 X173.307 Y68.307 E0.01959
G1 X173.803 Y67.927 E0.01959
G1 X174.380 Y67.688 E0.01959
G1 X174.953 Y67.612 E0.01811
G1 X175.614 Y67.685 E0.02085
G1 X176.197 Y67.927 E0.01979
G1 X176.693 Y68.307 E0.01959
G1 X177.073 Y68.803 E0.01959
G1 X177.312 Y69.380 E0.01959
G1 X177.394 Y70.000 E0.01959
G1 X177.312 Y70.620 E0.01959
G1 X177.073 Y71.197 E0.01959
G1 X176.693 Y71.693 E0.01959
G1 X176.197 Y72.073 E0.01959
G1 X175.620 Y72.312 E0.01959
G1 X175.059 Y72.386 E0.01771
G1 X175.010 Y72.012 F10800.000
;TYPE:External perimeter
G1 F1200.000
G1 X174.479 Y71.945 E0.01679
G1 X173.993 Y71.744 E0.01648
G1 X173.576 Y71.424 E0.01648
G1 X173.256 Y71.007 E0.01648
G1 X173.055 Y70.521 E0.01648
G1 X172.986 Y70.000 E0.01648
G1 X173.055 Y69.479 E0.01648
G1 X173.256 Y68.993 E0.01648
G1 X173.576 Y68.576 E0.01648
G1 X173.993 Y68.256 E0.01648
G1 X174.479 Y68.055 E0.01648
G1 X174.957 Y67.992 E0.01512
G1 X175.519 Y68.054 E0.01773
G1 X176.007 Y68.256 E0.01655
G1 X176.424 Y68.576 E0.01648
G1 X176.744 Y68.993 E0.01648
G1 X176.945 Y69.479 E0.01648
G1 X177.014 Y70.000 E0.01648
G1 X176.945 Y70.521 E0.01648
G1 X176.744 Y71.007 E0.01648
G1 X176.424 Y71.424 E0.01648
G1 X176.007 Y71.744 E0.01648
G1 X175.521 Y71.945 E0.01648
G1 X175.070 Y72.004 E0.01428
G1 X174.812 Y72.359 F10800.000
;WIPE_START
G1 F8640.000
G1 X174.479 Y71.945 E-0.13713
G1 X173.993 Y71.744 E-0.12137
G1 X173.576 Y71.424 E-0.12137
G1 X173.256 Y71.007 E-0.12137
G1 X173.055 Y70.521 E-0.12137
G1 X172.986 Y70.000 E-0.12137
G1 X172.996 Y69.931 E-0.01601
;WIPE_END
G1 E-0.04000 F2100.000
G1 Z0.600 F10800.000
G1 X157.394 Y70.000
G1 Z0.200
G1 E0.80000 F2100.000
;TYPE:Perimeter
G1 F1200.000
G1 X157.312 Y70.620 E0.01959
G1 X157.091 Y71.153 E0.01811
G1 X156.698 Y71.689 E0.02085
G1 X156.197 Y72.073 E0.01979
G1 X155.620 Y72.312 E0.01959
G1 X155.000 Y72.394 E0.01959
G1 X154.380 Y72.312 E0.01959
G1 X153.803 Y72.073 E0.01959
G1 X153.307 Y71.693 E0.01959
G1 X152.927 Y71.197 E0.01959
G1 X152.688 Y70.620 E0.01959
G1 X152.606 Y70.000 E0.01959
G1 X152.688 Y69.380 E0.01959
G1 X152.927 Y68.803 E0.01959
G1 X153.307 Y68.307 E0.01959
G1 X153.803 Y67.927 E0.01959
G1 X154.380 Y67.688 E0.01959
G1 X154.953 Y67.612 E0.01811
G1 X155.614 Y67.685 E0.02085
G1 X156.197 Y67.927 E0.01979
G1 X156.693 Y68.307 E0.01959
G1 X157.073 Y68.803 E0.01959
G1 X157.312 Y69.380 E0.01959
G1 X157.386 Y69.941 E0.01771
G1 X157.012 Y69.990 F10800.000
;TYPE:External perimeter
G1 F1200.000
G1 X156.945 Y70.521 E0.01679
G1 X156.760 Y70.967 E0.01512
G1 X156.426 Y71.422 E0.01773
G1 X156.007 Y71.744 E0.01655
G1 X155.521 Y71.945 E0.01648
G1 X155.000 Y72.014 E0.01648
G1 X154.479 Y71.945 E0.01648
G1 X153.993 Y71.744 E0.01648
G1 X153.576 Y71.424 E0.01648
G1 X153.256 Y71.007 E0.01648
G1 X153.055 Y70.521 E0.01648
G1 X152.986 Y70.000 E0.01648
G1 X153.055 Y69.479 E0.01648
G1 X153.256 Y68.993 E0.01648
G1 X153.576 Y68.576 E0.01648
G1 X153.993 Y68.256 E0.01648
G1 X154.479 Y68.055 E0.01648
G1 X154.957 Y67.992 E0.01512
G1 X155.519 Y68.054 E0.01773
G1 X156.007 Y68.256 E0.01655
G1 X156.424 Y68.576 E0.01648
G1 X156.744 Y68.993 E0.01648
G1 X156.945 Y69.479 E0.01648
G1 X157.004 Y69.930 E0.01428
G1 X157.359 Y70.188 F10800.000
;WIPE_START
G1 F8640.000
G1 X156.945 Y70.521 E-0.13713
G1 X156.760 Y70.967 E-0.11133
G1 X156.426 Y71.422 E-0.13060
G1 X156.007 Y71.744 E-0.12189
G1 X155.521 Y71.945 E-0.12137
G1 X155.000 Y72.014 E-0.12137
G1 X154.930 Y72.004 E-0.01631
;WIPE_END
G1 E-0.04000 F2100.000
G1 Z0.600 F10800.000
G1 X143.641 Y77.873
G1 Z0.200
G1 E0.80000 F2100.000
;TYPE:Perimeter
G1 F1200.000
G1 X144.096 Y78.660 E0.02850
G1 X144.392 Y79.559 E0.02968
G1 X144.491 Y80.500 E0.02966
G1 X144.392 Y81.441 E0.02966
G1 X144.096 Y82.340 E0.02968
G1 X143.641 Y83.127 E0.02850
G1 X143.010 Y83.833 E0.02968
G1 X142.246 Y84.390 E0.02965
G1 X141.417 Y84.759 E0.02845
G1 X140.457 Y84.967 E0.03081
G1 X139.546 Y84.967 E0.02857
G1 X138.619 Y84.773 E0.02968
G1 X137.754 Y84.390 E0.02966
G1 X136.990 Y83.833 E0.02966
G1 X136.359 Y83.127 E0.02968
G1 X135.904 Y82.340 E0.02850
G1 X135.608 Y81.441 E0.02968
G1 X135.509 Y80.500 E0.02966
G1 X135.608 Y79.559 E0.02966
G1 X135.904 Y78.660 E0.02968
G1 X136.359 Y77.873 E0.02850
G1 X136.990 Y77.167 E0.02968
G1 X137.754 Y76.610 E0.02965
G1 X138.583 Y76.241 E0.02845
G1 X139.543 Y76.033 E0.03081
G1 X140.454 Y76.033 E0.02857
G1 X141.381 Y76.227 E0.02968
G1 X142.246 Y76.610 E0.02966
G1 X143.010 Y77.167 E0.02966
G1 X143.601 Y77.828 E0.02780
G1 X143.320 Y78.079 F10800.000
;TYPE:External perimeter
G1 F1200.000
G1 X143.750 Y78.815 E0.02670
G1 X144.021 Y79.639 E0.02720
G1 X144.112 Y80.500 E0.02715
G1 X144.021 Y81.361 E0.02715
G1 X143.750 Y82.185 E0.02720
G1 X143.334 Y82.905 E0.02605
G1 X142.756 Y83.552 E0.02720
G1 X142.056 Y84.061 E0.02714
G1 X141.299 Y84.398 E0.02598
G1 X140.416 Y84.590 E0.02833
G1 X139.585 Y84.590 E0.02608
G1 X138.735 Y84.413 E0.02721
G1 X137.944 Y84.061 E0.02715
G1 X137.244 Y83.552 E0.02715
G1 X136.666 Y82.905 E0.02720
G1 X136.250 Y82.185 E0.02605
G1 X135.979 Y81.361 E0.02720
G1 X135.888 Y80.500 E0.02715
G1 X135.979 Y79.639 E0.02715
G1 X136.250 Y78.815 E0.02720
G1 X136.666 Y78.095 E0.02605
G1 X137.244 Y77.448 E0.02720
G1 X137.944 Y76.939 E0.02714
G1 X138.701 Y76.602 E0.02598
